lib/healthicons/icons/outline/symbols/paved_road.svg

<svg fill="none" height="48" viewBox="0 0 48 48" width="48" xmlns="http://www.w3.org/2000/svg"><g clip-rule="evenodd" fill="#333" fill-rule="evenodd"><path d="m42 7c-4.5962 0-9.1475.90529-13.3939 2.66421-4.2464 1.75889-8.1048 4.33699-11.3548 7.58709-3.2501 3.25-5.8282 7.1084-7.58708 11.3548-1.75892 4.2464-2.66422 8.7976-2.66422 13.3939 0 .5523-.44772 1-1 1s-1-.4477-1-1c0-4.8589.95704-9.6702 2.81646-14.1593 1.85943-4.489 4.58484-8.5679 8.02064-12.0037 3.4357-3.4357 7.5146-6.16113 12.0036-8.02055 4.4891-1.85942 9.3004-2.81645 14.1593-2.81645.5523 0 1 .44772 1 1 0 .55229-.4477 1-1 1z"/><path d="m38.3763 15.2439c-.7451.1009-1.4833.2325-2.2129.3941l-.4323-1.9528c.7837-.1734 1.5765-.3148 2.3768-.4232zm-6.5022 1.7264c-1.3903.5625-2.7314 1.2398-4.0092 2.025l-1.047-1.7041c1.3725-.8432 2.8129-1.5708 4.3061-2.1749zm-7.6271 4.6865c-.563.4914-1.1071 1.0074-1.6305 1.5472-.5235.5398-1.0225 1.0995-1.4962 1.6774l-1.5467-1.2681c.5089-.6207 1.0449-1.2218 1.607-1.8016.5622-.5798 1.1466-1.134 1.7513-1.6617zm-5.6756 6.9228c-.7454 1.3014-1.3812 2.6627-1.9005 4.0696l-1.8763-.6927c.5579-1.5111 1.2407-2.9732 2.0413-4.371zm-3.1002 8.3979c-.1389.7342-.2478 1.4761-.3257 2.224l-1.9893-.2073c.0837-.8032.2007-1.6.3499-2.3887z"/><path d="m34.729 24.4463c2.3052-.9549 4.7759-1.4463 7.271-1.4463.5523 0 1 .4477 1 1s-.4477 1-1 1c-2.2325 0-4.4431.4397-6.5056 1.294-2.0625.8544-3.9366 2.1066-5.5152 3.6852s-2.8308 3.4526-3.6852 5.5152c-.8543 2.0625-1.294 4.2731-1.294 6.5056 0 .5523-.4477 1-1 1s-1-.4477-1-1c0-2.4951.4915-4.9658 1.4463-7.271s2.3544-4.3997 4.1187-6.164 3.8588-3.1639 6.164-4.1187z"/></g></svg>

<svg width="48" height="48" viewBox="0 0 48 48" fill="none" xmlns="http://www.w3.org/2000/svg">
<path fill-rule="evenodd" clip-rule="evenodd" d="M42 7C37.4038 7 32.8525 7.90529 28.6061 9.66421C24.3597 11.4231 20.5013 14.0012 17.2513 17.2513C14.0012 20.5013 11.4231 24.3597 9.66422 28.6061C7.9053 32.8525 7 37.4037 7 42C7 42.5523 6.55228 43 6 43C5.44772 43 5 42.5523 5 42C5 37.1411 5.95704 32.3298 7.81646 27.8407C9.67589 23.3517 12.4013 19.2728 15.8371 15.837C19.2728 12.4013 23.3517 9.67587 27.8407 7.81645C32.3298 5.95703 37.1411 5 42 5C42.5523 5 43 5.44772 43 6C43 6.55229 42.5523 7 42 7Z" fill="#333333"/>
<path fill-rule="evenodd" clip-rule="evenodd" d="M38.3762 15.2439C37.6311 15.3448 36.8929 15.4765 36.1633 15.638L35.731 13.6853C36.5147 13.5118 37.3075 13.3704 38.1078 13.262L38.3762 15.2439ZM31.874 16.9703C30.4837 17.5328 29.1426 18.2102 27.8648 18.9953L26.8178 17.2913C28.1903 16.448 29.6307 15.7204 31.1239 15.1163L31.874 16.9703ZM24.2469 21.6568C23.6839 22.1482 23.1398 22.6642 22.6164 23.204C22.0929 23.7438 21.5939 24.3035 21.1201 24.8814L19.5735 23.6133C20.0824 22.9927 20.6184 22.3915 21.1805 21.8117C21.7427 21.232 22.3271 20.6777 22.9318 20.15L24.2469 21.6568ZM18.5713 28.5796C17.8259 29.881 17.1901 31.2423 16.6707 32.6492L14.7945 31.9566C15.3524 30.4454 16.0352 28.9833 16.8358 27.5855L18.5713 28.5796ZM15.4711 36.9775C15.3322 37.7117 15.2233 38.4537 15.1454 39.2015L13.1561 38.9943C13.2398 38.191 13.3568 37.3942 13.506 36.6056L15.4711 36.9775Z" fill="#333333"/>
<path fill-rule="evenodd" clip-rule="evenodd" d="M34.729 24.4463C37.0342 23.4914 39.5049 23 42 23C42.5523 23 43 23.4477 43 24C43 24.5523 42.5523 25 42 25C39.7675 25 37.5569 25.4397 35.4944 26.294C33.4319 27.1484 31.5578 28.4006 29.9792 29.9792C28.4006 31.5578 27.1484 33.4318 26.2941 35.4944C25.4397 37.5569 25 39.7675 25 42C25 42.5523 24.5523 43 24 43C23.4477 43 23 42.5523 23 42C23 39.5049 23.4915 37.0342 24.4463 34.729C25.4011 32.4238 26.8007 30.3293 28.565 28.565C30.3293 26.8007 32.4238 25.4011 34.729 24.4463Z" fill="#333333"/>
</svg>
